products/zillion/src/static/avely.svg

<svg width="26" height="26" viewBox="0 0 26 26" fill="none" xmlns="http://www.w3.org/2000/svg">
<g clip-path="url(#clip0_2_629)">
<path d="M19.1784 17.3613C19.9203 16.0345 19.483 14.3408 18.2017 13.5779C16.9203 12.8151 15.2806 13.2718 14.5387 14.5986C13.7968 15.9254 14.2342 17.6192 15.5155 18.382C16.7968 19.1449 18.4366 18.6881 19.1784 17.3613Z" fill="white"/>
<path d="M13.7615 12.6953C15.1924 12.3149 16.0512 10.8027 15.6808 9.31751C15.3103 7.83235 13.8498 6.9372 12.4189 7.31766C10.9881 7.69813 10.1292 9.21033 10.4997 10.6955C10.8702 12.1807 12.3307 13.0758 13.7615 12.6953Z" fill="white"/>
<path d="M11.6826 14.6518C11.4013 14.1226 10.9621 13.7035 10.431 13.4572C9.89989 13.211 9.30565 13.1502 8.73833 13.2854C8.17101 13.4206 7.66219 13.7431 7.28708 14.2056C6.91289 14.6682 6.69376 15.2437 6.66312 15.8463C6.63248 16.4488 6.79218 17.0456 7.11716 17.5468C7.44214 18.047 7.9166 18.4245 8.46628 18.6206C9.01688 18.8166 9.61391 18.8214 10.1664 18.635C10.7198 18.4477 11.1989 18.0788 11.5322 17.5844L12.0457 18.3791C12.1069 18.4747 12.1859 18.5568 12.2778 18.6206C12.3697 18.6843 12.4728 18.7287 12.5814 18.7519C12.69 18.7741 12.8015 18.7741 12.9101 18.7519C13.0187 18.7297 13.1218 18.6853 13.2147 18.6215C13.3066 18.5578 13.3864 18.4757 13.4477 18.3801C13.509 18.2845 13.5526 18.1773 13.574 18.0643C13.5953 17.9514 13.5953 17.8355 13.574 17.7225C13.5526 17.6095 13.5099 17.5023 13.4477 17.4067L11.6798 14.6527L11.6826 14.6518ZM10.3186 15.9921C10.3186 16.2315 10.2379 16.4643 10.0893 16.6477C9.94074 16.8312 9.73462 16.9548 9.50713 16.9963C9.27965 17.0379 9.04474 16.9944 8.84511 16.8747C8.64548 16.7549 8.49228 16.5647 8.41335 16.3397C8.33443 16.1137 8.33536 15.8675 8.41521 15.6415C8.49506 15.4165 8.64826 15.2273 8.84975 15.1085C9.05031 14.9897 9.28522 14.9472 9.5127 14.9907C9.74019 15.0332 9.94539 15.1578 10.093 15.3432L10.2054 15.5179C10.2796 15.6637 10.3196 15.8269 10.3196 15.9921H10.3186Z" fill="white"/>
<path d="M13.1004 26C6.20722 26 0.599976 20.1685 0.599976 13.0005C0.599976 5.8325 6.20722 0 13.1004 0C19.9937 0 25.6009 5.83153 25.6009 13.0005C25.6009 20.1694 19.9937 26.001 13.1004 26.001V26ZM13.1004 1.93129C7.23229 1.93129 2.45699 6.89664 2.45699 13.0005C2.45699 19.1043 7.23136 24.0697 13.1004 24.0697C18.9695 24.0697 23.7439 19.1043 23.7439 13.0005C23.7439 6.89664 18.9686 1.93129 13.1004 1.93129Z" fill="white"/>
</g>
<defs>
<clipPath id="clip0_2_629">
<rect width="25" height="26" fill="white" transform="translate(0.599976)"/>
</clipPath>
</defs>
</svg>

<svg xmlns="http://www.w3.org/2000/svg" width="26" height="26" fill="none" viewBox="0 0 26 26"><g fill="#fff" clip-path="url(#a)"><path d="M19.178 17.361c.742-1.326.305-3.02-.976-3.783-1.282-.763-2.921-.306-3.663 1.02-.742 1.327-.305 3.021.976 3.784 1.282.763 2.922.306 3.663-1.02Zm-5.417-4.666c1.431-.38 2.29-1.892 1.92-3.377-.37-1.486-1.831-2.38-3.262-2-1.43.38-2.29 1.892-1.92 3.377.371 1.486 1.832 2.38 3.262 2Zm-2.078 1.957a2.717 2.717 0 0 0-1.252-1.195 2.59 2.59 0 0 0-1.693-.172 2.666 2.666 0 0 0-1.45.92 2.862 2.862 0 0 0-.17 3.341c.324.501.799.878 1.348 1.075.55.196 1.148.2 1.7.014a2.692 2.692 0 0 0 1.366-1.05l.514.794a.855.855 0 0 0 .535.373.82.82 0 0 0 .634-.13.894.894 0 0 0 .36-.899.878.878 0 0 0-.127-.316l-1.768-2.754.003-.001Zm-1.364 1.34c0 .24-.081.472-.23.656a.953.953 0 0 1-1.244.227c-.2-.12-.353-.31-.432-.535a1.053 1.053 0 0 1 .002-.698c.08-.226.233-.415.435-.534a.95.95 0 0 1 .663-.117.97.97 0 0 1 .58.352l.112.175c.075.146.115.309.115.474h-.001Z"/><path d="M13.1 26C6.207 26 .6 20.169.6 13 .6 5.833 6.207 0 13.1 0c6.894 0 12.5 5.832 12.5 13 0 7.17-5.606 13.001-12.5 13.001V26Zm0-24.069c-5.868 0-10.643 4.966-10.643 11.07 0 6.103 4.774 11.069 10.643 11.069 5.87 0 10.644-4.966 10.644-11.07 0-6.103-4.775-11.069-10.644-11.069Z"/></g><defs><clipPath id="a"><path fill="#fff" d="M.6 0h25v26H.6z"/></clipPath></defs></svg>
